!!!OTL: Heilige drei Koenige.
!!!ARE: Europa, Mitteleuropa, Deutschland
!!!SCT: A0532A
!!!TXL: @@GMH
!!!YEM: Copyright 1995, estate of Helmut Schaffrath.
**kern	**text
!! Mixed meters:  4/2; 6/2
*M4/2	*
*met(c|)	*
*clefC3	*
*k[b-]	*
*G:dor	*
=1	=1
!LO:TX:a:t=dor. tr.	!
2ryy	.
{2G	Jch
2G	lag
2d	in
=2	=2
2d	ei-
2d	-ner
2c/	nacht
2B-	und
=3	=3
1A	ſchlief,
2r}	.
{2c	mir
=4	=4
2c	träumt,
2c	wie_mir
2c	könig
2c	.
=5	=5
*lig	*
4B-	Da-
4d	.
*Xlig	*
*lig	*
4c	-vid
4B-	.
*Xlig	*
2.A}	rief,
{4d	wie
=6	=6
2f	ich
2d	ſolt
2c	tich-
4B-	-ten
4c/	vnd
=7	=7
*M6/2	*
1A	rei-
1G	-men
2r}	.
{2G	von
=8	=8
*M4/2	*
2B-	heilgen
2B-	drei
2c	kön-
4c	-gen
4c	ein
=9	=9
2B-	newes
*lig	*
4A	.
4G	.
*Xlig	*
2.A}	lied,
{4d	ſie
=10	=10
2f	li-
4d	-gen
4d	ʒu
2c/	Cöln
2B-	am
=11	=11
1A	Rei-
1G/ll}	-ne.
==	==
!!!GTL: Geistliche Volkslieder
!!!AGN: Romanze, Ballade, Lied, religioeses Lied
!! Paderborner Gsgb. 1617.
!!!ONB: ESAC (Essen Associative Code) Database: ALTDEU
!!!AMT: irregular
!!!AIN: vox
!!!EED: Helmut Schaffrath
!!!EEV: 1.0
!!!RDF**kern: l = terminal long
!!!AMD: Dorian
!!!URL-scan: https://rosdok.uni-rostock.de/mcrviewer/recordIdentifier/rosdok_ppn738218359/iview2/phys_0710.iview2?x=-2231.2783251231526&y=-12.096551709342748&scale=0.2314709236031927&rotation=0&layout=singlePageLayout&logicalDiv=log_0007
!!!ENC: Anna Maria Matuszewska
!!!EEV: 2024/20/03
*-	*-
